X: 47
T: Road to Boston
M:4/4
L:1/4
K: G
|: uA | "G" vB3 (A/B/) | "C" c B A G | "D" F G A B | "G" G D B, D |
        "G"  B3 (A/B/) | "C" c B A G | "D" F G A B | "G" G3 :|
|: (uB/c/) | "G" vd3 (^c/d/) | "C" e d =c B | "Am" c3 (B/c/) | "D" d c B A |
         "G" B3 (A/B/) | "C" c B A G | "D" F G A B | "G" G3 :|

% From _The American Fiddle Method Book_
